assets/img/ticon11.svg

<svg width="48" height="48" viewBox="0 0 48 48" fill="none" xmlns="http://www.w3.org/2000/svg">
<circle cx="24" cy="24" r="24" fill="#FFC940"/>
<g clip-path="url(#clip0)">
<path d="M31.2947 30.6135C31.2947 31.0863 30.9098 31.4712 30.4371 31.4712H18.3975C17.9247 31.4712 17.5399 31.0863 17.5399 30.6135V21.9165C17.5399 21.4437 17.9247 21.0588 18.3975 21.0588H30.4371C30.9098 21.0588 31.2947 21.4437 31.2947 21.9165V30.6135ZM31.2617 16.353H30.6679V16.144C30.6679 15.0006 29.7773 14.022 28.6339 14C27.4684 13.978 26.5228 14.9126 26.5228 16.0781V16.353H22.2897V16.144C22.2897 15.0006 21.3991 14.022 20.2556 14C19.0902 13.978 18.1446 14.9126 18.1446 16.0781V16.353H17.5618C16.1435 16.353 15 17.5074 15 18.9148V31.4382C15 32.8565 16.1435 34 17.5618 34H31.2617C32.68 34 33.8235 32.8565 33.8235 31.4382V18.9148C33.8235 17.5074 32.68 16.353 31.2617 16.353Z" fill="black"/>
</g>
<defs>
<clipPath id="clip0">
<rect width="18.8235" height="20" fill="white" transform="translate(15 14)"/>
</clipPath>
</defs>
</svg>

<svg width="48" height="48" fill="none" xmlns="http://www.w3.org/2000/svg"><circle cx="24" cy="24" r="24" fill="#FFC940"/><g clip-path="url(#clip0)"><path d="M31.295 30.613a.859.859 0 01-.858.858h-12.04a.859.859 0 01-.857-.858v-8.697c0-.472.385-.857.858-.857h12.04c.472 0 .857.385.857.857v8.697zm-.033-14.26h-.594v-.209c0-1.143-.89-2.122-2.034-2.144a2.07 2.07 0 00-2.111 2.078v.275H22.29v-.209c0-1.143-.89-2.122-2.034-2.144a2.07 2.07 0 00-2.111 2.078v.275h-.583A2.564 2.564 0 0015 18.915v12.523A2.557 2.557 0 0017.562 34h13.7a2.557 2.557 0 002.562-2.562V18.915a2.564 2.564 0 00-2.562-2.562z" fill="#000"/></g><defs><clipPath id="clip0"><path fill="#fff" transform="translate(15 14)" d="M0 0h18.823v20H0z"/></clipPath></defs></svg>
